X:68
T:Tansey's Favourite
R:Jig
S:Seamus Tansey (flute)
D:Clare FM broadcast. From the Miltown Malbay flute recital.
H:The Tansey of the title is another Tansey, not the player.
H:The transcription here is somewhat rationalised
M:6/8
Z:Bernie Stocks
K:G
|: BdB (3ABcA | BdB {d}B2G | BGB dBG | ABA DFA | ~B3 ~A3 | GBd g2g | edc BcA | AGF G3 :|
|: dcB gdB | GBd g3 | cAc fcA | GBd g3 | BAG AGF | GBd g3 | edc BcA | AGF G3 :|
